!! 00000] TT[WS
!!!OTL: Xin zhongguo
!!!ARE: Asia, China, Shanxi Zuoquan
!! Ethnic Group: Han
!! WII, 263 (1)
!!!SCT: J0792
!!!YEM: Copyright 1995, estate of Helmut Schaffrath.
**kern
*ICvox
*Ivox
*M2/4
*k[b-]
*F:
{8.cc
16ff
8.dd
16cc
=1
8cc
8f
4g
=2
8cc
16cc
16dd
8cc
8f
=3
2g}
=4
{8g
8a
8dd
8cc
=5
8a
8g
8f
8e
=6
8d
8f
8.g
16a
=7
8cc
8f
8e
8d
=8
2c}
==
!!!AGN: Xiaodiao. Xuanchuan, Xinminge
!!!ONB: ESAC (Essen Associative Code) Database: CHINA
!!!AMT: simple duple
!!!AIN: vox
!!!EED: Helmut Schaffrath
!!!EEV: 1.0
*-
